public/assets/img/material-icons/no_drinks.svg

<svg height="24" viewBox="0 0 24 24" width="24" xmlns="http://www.w3.org/2000/svg"><path d="m5.83 3h15.17v2l-6.2 6.97-4.97-4.97h6.74l1.78-2h-10.52zm13.95 19.61-1.78-1.78v.17h-12v-2h5v-5l-1.37-1.54-8.24-8.24 1.41-1.41.2.19 18.19 18.19zm-3.61-3.61-3.17-3.17v3.17z"/></svg>

<svg xmlns="http://www.w3.org/2000/svg" width="24" height="24" viewBox="0 0 24 24"><path d="M5.83 3H21v2l-6.2 6.97L9.83 7h6.74l1.78-2H7.83l-2-2zm13.95 19.61L18 20.83V21H6v-2h5v-5l-1.37-1.54-8.24-8.24L2.8 2.81 3 3l18.19 18.19-1.41 1.42zM16.17 19 13 15.83V19h3.17z"/></svg>
